X:4392
L:1/8
M:3/4
K:D
 de | B2 AFAd | F2 EDDB | A2 FAde | fedc B2 | AFAd F2 | EDDF E2 | DBAF D2 :|

